icon_installer/data/icons/scalable/actions/show-move-tool-symbolic.svg

<?xml version="1.0" encoding="UTF-8"?>
<svg height="16px" viewBox="0 0 16 16" width="16px" xmlns="http://www.w3.org/2000/svg">
    <path d="m 8.019531 0 l -3.019531 3.015625 h 2.03125 v 4.019531 c -1.34375 -0.011718 -2.6875 -0.019531 -4.03125 -0.027344 v -1.996093 l -3 2.976562 l 3 3.019531 v -2.007812 c 1.34375 0.003906 2.6875 0.007812 4.03125 0.011719 v 3.992187 h -2.03125 l 3.019531 2.996094 l 2.980469 -2.996094 h -2 v -3.992187 c 1.332031 0.003906 2.667969 0 4 -0.007813 v 2 l 3 -3.019531 l -3 -2.972656 v 2.007812 c -1.332031 0.023438 -2.667969 0.03125 -4 0.027344 v -4.03125 h 2 z m 0 0" fill="#222222"/>
</svg>

<svg xmlns="http://www.w3.org/2000/svg" width="16" height="16"><path fill="#222" d="M8.02 0 5 3.016h2.031v4.02C5.688 7.022 4.344 7.015 3 7.007V5.012L0 7.988l3 3.02V9l4.031.012v3.992H5L8.02 16 11 13.004H9V9.012c1.332.004 2.668 0 4-.008v2l3-3.02-3-2.972V7.02c-1.332.023-2.668.03-4 .027V3.016h2zm0 0"/></svg>
